!!!OTL:Das Apfelmaedchen.
!!!OTL-incipit:ES GING EIN MAEDCHEN IN DIE STADT
!!!COM: Volksweise
!!!ARE: Europa, Mitteleuropa, Deutschland
!!!SCT: F0227
!!!TXL: @@DE
!!!YEM: Copyright 1995, estate of Helmut Schaffrath.
**kern	**text
*ICvox	*
*M3/4	*
*k[]	*
*C:	*
!LO:TX:a:t=Munter und ziemlich schnell.	!
!LO:TX:a:t=Volksweise	!
{8g	1._Es
=1	=1
8g	ging
8g	ein
4.e	Mäd-
8g	-chen
=2	=2
8f	in
8f	die
4d	Stadt,
8r}	.
{8d	die
=3	=3
8.f	Ae-
16e	-pfel
8d	zu
8a	ver-
8g	-kau-
8f	-fen
=4	=4
(8eL	hatt'.
8ccJ	.
4g)	.
8r}	.
{8g	es
=5	=5
8g	ging
8g	ein
4.e	Mäd-
8g	-chen
=6	=6
8f	in
8f	die
4d	Stadt,
8r}	.
{8d	die
=7	=7
8.f	Ae-
16e	-pfel
8d	zu
8a	ver-
8g	-kau-
8B	-fen
=8	=8
4c	hatt'.
8r}	.
{8e	Di-
8e	-rum-
8e	-di-
=9	=9
8g	-rul-
8g	-la,
4.cc	la,
8g	di-
=10	=10
8a	-rul-
8a	-la
4.dd}	la,
{8cc	di-
=11	=11
8.b	-rul-
16g	-la,
8g	la,
8ff	la,
8ee	la,
8dd	la,
=12	=12
4cc	la!
4r	.
8r}	.
==	==
!!!AGN: Scherz - Lied, Liebe
!!!ONB: ESAC (Essen Associative Code) Database: FINK
!!!AMT: simple triple
!!!AIN: vox
!!!EED: Helmut Schaffrath
!!!EEV: 1.0
!!Text: Volkslied
!!!source: Musikalischer Hausschatz der Deutschen. Eine Sammlung von über 1000 Liedern und Gesängen mit Singstimmen und Klavierbegleitung. Leipzig, Litterarisches Verlags-Haus.
!!!page: 131
!!!ENC: Anna Maria Matuszewska
!!!EEV: 2025/03/12
*-	*-
